X: 7232
T: Clancy's
R: jig
M: 6/8
K: Bminor
|:A|FBB AFD|def ecA|BcB AFD|EDE FDB,|
FBB AFD|def ecA|BcB AFE|FBB B2:|
|:c|dfB dfB|def fed|ceA ceA|cde edc|
def efg|fdB cAF|dcB AFE|FBB B2:|

